dist/img/loader.svg

<svg width="301" height="301" viewBox="0 0 301 301" fill="none" xmlns="http://www.w3.org/2000/svg">
<g clip-path="url(#clip0)">
<path d="M280.651 109.371C266.67 86.1176 246.448 66.5813 222.435 53.8472C176.383 29.4862 118.799 31.7799 74.4852 59.2256C32.8571 85.0893 5.13143 132.625 6.00032 182.059C6.1583 190.996 7.18518 199.855 9.08096 208.555C12.8725 226.272 19.5867 242.724 29.6975 257.752C33.963 264.079 37.6756 265.266 45.2587 262.972C46.2856 262.893 47.2334 262.893 48.2603 262.814C48.4973 260.915 46.9175 260.045 46.0486 258.859C14.8473 214.013 10.8188 166.952 34.7529 117.755C43.8369 99.089 57.5022 84.0611 74.4062 71.8806C78.9087 67.5304 84.438 64.5249 89.8884 61.5193C93.285 59.4628 96.9186 58.1182 100.473 56.4573C123.696 45.7005 149.842 42.1412 175.198 45.0677C201.502 48.1524 223.383 58.5137 245.184 72.7507C246.685 73.6998 248.107 74.6489 249.766 75.2026C255.611 79.6318 260.587 84.9311 265.564 90.3095C278.044 105.496 287.76 122.264 293.289 141.167C294.316 140.06 293.921 138.32 293.368 136.817C290.13 127.405 285.864 118.151 280.651 109.371Z" fill="#FF6CC5"/>
<path d="M197.71 43.723C195.814 43.2484 193.286 45.1467 192.102 42.062C194.076 42.2993 195.972 42.6948 197.71 43.723Z" fill="#FF6CC5"/>
<path d="M146.602 85.4846C142.732 85.0101 138.94 84.4564 134.991 85.3264C125.275 87.3829 117.771 93.2358 111.531 100.433C95.6535 118.546 80.6452 137.37 67.2168 157.381C65.558 159.912 63.7412 162.285 61.9245 164.737C61.8455 164.816 61.4505 164.737 60.9766 164.658C67.5328 146.783 74.484 129.145 85.2267 113.326C92.4149 102.648 101.657 94.185 112.794 87.8574C120.22 83.5864 128.119 80.8972 136.887 81.8463C140.441 82.1627 143.759 83.1909 146.602 85.4846Z" fill="#333333"/>
<path d="M94.1541 234.181C94.6281 234.577 95.102 234.893 95.576 235.289C93.0483 236.396 90.9155 234.814 88.6248 234.34C79.4619 232.362 70.22 230.306 62.0839 224.927C54.2638 219.786 49.8404 212.589 50.2353 203.177C50.6303 192.973 56.4756 185.855 64.4536 180.239C62.7948 184.036 60.8991 187.753 59.8722 191.866C58.2924 198.431 59.3192 204.363 63.5847 209.662C68.9561 216.385 75.2754 222.08 82.6215 226.588C86.492 229.04 90.2836 231.65 94.1541 234.181Z" fill="#333333"/>
<path d="M138.941 104.467C138.072 105.021 137.204 105.575 136.335 106.128C134.202 98.0608 130.726 96.2417 122.985 99.01C118.641 100.592 115.165 103.281 112.4 106.919C106.081 115.303 104.501 125.111 103.791 135.156C103.554 138.162 102.764 139.269 99.762 139.981C89.2562 142.512 85.8596 149.235 89.1772 159.596C90.0461 162.364 91.389 164.974 92.8108 167.426C96.3654 173.596 96.2074 179.29 91.073 184.669C88.9403 186.963 87.2815 189.652 85.3857 192.183C85.3857 191.471 85.3067 190.838 85.3067 190.126C85.2277 190.285 85.0697 190.522 84.9907 190.68C84.9907 190.443 85.0697 190.205 85.3067 190.126C86.0176 186.963 85.1487 184.115 83.1739 181.584C81.5151 179.37 79.6984 177.313 78.1185 175.098C76.3807 172.647 75.4328 170.036 76.4597 166.952C77.4076 164.025 78.9084 161.89 82.463 161.257C80.3303 160.071 78.6715 160.545 77.0917 161.336C70.3774 164.658 68.6397 173.912 73.932 179.449C75.4329 181.031 77.2496 182.454 79.1454 183.641C82.384 185.697 84.2008 188.544 84.1218 192.42C84.0428 194.556 81.5941 195.505 81.1992 197.482C82.542 196.928 83.8059 195.742 84.9907 194.793C85.3857 194.477 85.7806 194.002 85.6227 193.527C87.3604 194.951 89.0192 190.443 89.7302 189.494C91.231 187.358 93.1268 185.539 94.7066 183.562C98.2612 179.053 99.525 173.596 97.3923 168.138C96.0494 164.737 94.3116 161.415 93.1268 157.935C89.8881 148.918 93.7587 142.828 103.712 141.563C103.712 143.461 103.712 145.28 103.712 147.099C103.791 148.839 103.869 150.579 103.948 152.319C104.264 152.319 104.58 152.319 104.896 152.398C105.054 150.658 105.212 148.918 105.37 147.178C106.239 139.823 106.555 139.506 114.375 139.506C115.244 138.952 116.508 139.664 117.219 138.241C115.639 136.58 113.585 136.817 111.848 137.133C108.451 137.766 108.293 136.184 109.083 133.653C111.058 126.851 113.348 120.128 116.587 113.801C118.404 110.241 120.852 107.157 124.091 104.863C128.989 101.304 131.753 102.332 133.728 108.027C134.36 110.004 134.123 112.614 136.809 113.484C138.151 110.716 137.835 107.552 139.257 104.863C139.178 104.705 138.941 104.467 138.941 104.467Z" fill="#333333"/>
<path d="M163.586 216.228C161.848 218.521 160.11 220.815 157.03 223.425C159.321 218.363 161.216 214.329 162.243 209.979C164.455 200.883 162.796 195.9 155.213 190.522C149.052 186.093 142.101 182.692 136.571 177.392C131.753 172.805 129.383 167.426 131.832 159.438C132.78 171.935 141.943 174.07 150.158 177.471C153.554 178.895 156.951 180.24 160.11 182.138C171.327 188.94 173.381 201.041 165.561 213.301C165.877 214.883 164.929 215.674 163.586 216.228Z" fill="#333333"/>
<path d="M128.832 202.544C141.313 203.493 150.475 209.9 151.186 217.888C151.976 225.798 146.131 234.261 137.916 236.713C143.05 223.346 138.39 212.589 128.832 202.544Z" fill="#333333"/>
<path d="M163.586 216.227C164.297 215.199 164.929 214.25 165.64 213.222C166.746 214.645 167.456 213.301 168.246 212.826C173.223 209.979 178.278 207.448 184.203 210.295C185.703 211.007 187.204 209.267 189.179 210.532C186.888 213.38 186.177 216.623 185.94 220.34C185.782 223.267 182.544 223.425 179.937 223.662C173.144 224.216 167.141 222.871 163.586 216.227Z" fill="#FF6CC5"/>
<path d="M190.523 162.364C193.051 159.596 195.658 157.144 199.765 157.619C202.056 157.856 201.345 156.116 201.187 154.929C200.002 147.02 199.054 139.111 194.552 131.359C208.928 142.116 210.666 158.726 200.239 172.251C200.397 170.669 200.555 169.325 200.713 167.98C199.923 167.031 200.318 166.003 200.397 164.974C200.634 160.624 200.318 160.466 196.053 161.811C194.236 162.364 192.498 164.025 190.523 162.364Z" fill="#333333"/>
<path d="M199.213 123.687C199.056 125.743 196.449 125.19 195.896 126.851C188.708 130.252 181.441 133.653 174.252 137.133C167.143 140.613 160.429 144.805 153.715 148.997C166.432 136.026 183.02 130.173 199.213 123.687Z" fill="#333333"/>
<path d="M146.445 166.24C150 166.161 153.633 165.607 157.109 166.002C159.558 166.319 161.216 169.403 164.139 169.008C164.139 169.403 164.218 169.878 164.06 170.115C163.744 170.59 163.428 171.143 162.48 170.748C161.059 170.115 159.558 169.641 158.057 169.087C157.03 168.771 156.319 168.612 155.45 169.799C151.738 175.098 147.235 175.81 144.549 168.929C144.233 168.059 143.918 167.189 143.602 166.398C144.549 165.765 145.497 165.923 146.445 166.24Z" fill="#333333"/>
<path d="M143.838 156.828C150.236 153.11 156.635 152.398 163.112 156.59C165.166 157.935 167.614 158.41 170.616 159.517C165.955 162.127 161.927 159.042 157.503 160.308C158.925 158.726 160.268 159.675 161.769 158.726C155.924 156.828 150.394 157.302 144.865 157.777C143.917 158.093 143.68 157.619 143.838 156.828Z" fill="#333333"/>
<path d="M169.195 118.151C166.431 118.783 163.824 119.653 162.007 122.105C160.427 123.45 158.927 124.795 157.347 126.06C155.609 126.456 154.819 127.721 154.345 129.303C153.239 130.647 152.212 132.071 151.107 133.416C148.342 138.161 144.945 142.67 143.681 148.206C141.233 154.297 141.075 160.387 143.681 166.477C144.629 166.398 145.577 166.398 146.446 166.319C142.97 164.5 142.181 160.229 144.787 157.856C144.471 157.539 144.155 157.223 143.839 156.907C141.865 153.822 144.55 151.133 144.55 148.206C146.367 143.382 149.053 139.031 151.975 134.919C157.347 127.167 164.14 122.343 174.33 123.292C177.094 123.529 180.175 120.603 183.098 119.1C178.595 116.885 173.935 116.964 169.195 118.151Z" fill="#333333"/>
<path d="M197.631 166.082C193.918 166.873 190.284 167.98 186.651 168.929C186.256 168.613 184.755 169.878 185.387 168.297C185.94 166.952 187.204 165.924 188.152 164.737C185.15 165.37 183.965 167.585 183.491 170.353C182.622 177.471 184.281 183.799 188.942 189.256C191.864 192.974 191.864 192.974 186.414 199.143C193.839 195.663 194.708 192.895 189.731 188.466C187.915 186.488 186.73 184.115 186.098 181.584C185.387 178.658 182.385 174.861 188.231 173.596C188.626 173.517 189.1 172.805 189.1 172.409C189.021 168.613 191.943 169.167 194.234 168.85C194.629 169.167 194.945 169.167 195.34 168.85C196.92 168.771 198.736 170.274 199.842 167.901C199.684 166.636 198.262 166.003 197.631 166.082Z" fill="#333333"/>
<path d="M194.313 168.85C194.708 168.85 195.024 168.85 195.419 168.85C194.787 172.093 194.55 175.573 188.941 175.889C192.101 173.912 194.55 172.172 194.313 168.85Z" fill="#333333"/>
<path d="M176.621 198.352C178.517 196.533 180.492 197.324 182.545 197.798C180.65 197.64 179.228 199.459 177.332 198.906C177.095 198.827 176.937 198.589 176.621 198.352Z" fill="#333333"/>
<path d="M113.904 176.206C125.199 165.133 133.415 151.845 140.761 138.003C141.867 136.738 142.735 135.393 142.972 133.732C141.63 134.682 140.682 135.868 140.05 137.292C131.124 150.026 121.171 161.89 109.559 172.33C103.319 177.946 98.9746 184.906 99.6855 193.923C100.475 196.059 99.1326 198.906 101.818 200.488C104.899 207.29 110.744 210.928 117.458 212.906C123.62 214.725 129.939 215.99 134.994 220.578C133.809 216.544 130.334 215.041 127.253 213.38C123.225 211.245 118.722 209.821 114.773 207.527C105.294 202.07 102.924 192.025 108.848 182.85C110.349 180.477 111.929 178.104 113.904 176.206Z" fill="#333333"/>
<path d="M224.251 181.742C234.362 171.855 234.125 161.336 223.856 151.686C222.829 150.737 221.408 150.025 220.934 148.602C217.221 138.161 209.559 131.122 200.791 125.111C198.658 126.535 200.712 127.563 201.265 128.433C203.872 132.071 206.873 135.393 209.085 139.11C206.952 136.659 204.504 134.286 202.055 131.992C201.107 131.122 200.159 129.619 198.421 130.806C202.055 136.263 205.925 141.562 210.665 146.15C217.142 152.398 219.907 167.11 215.72 175.019C214.693 176.997 214.535 177.788 216.194 179.132C217.142 179.844 217.774 180.872 216.431 182.059C212.245 185.855 208.137 189.652 204.03 193.448C204.504 193.053 203.398 191.629 203.082 191.392C202.529 190.917 201.66 190.522 200.87 190.363C201.344 191.313 202.134 192.024 202.766 192.815C203.003 193.132 203.556 193.527 203.714 193.923C203.872 194.397 203.556 194.714 203.24 195.109C202.213 196.849 201.107 198.51 200.238 200.329C199.369 202.069 198.579 203.889 198.184 205.866C197.947 206.894 197.789 207.843 197.789 208.871C197.71 209.821 198.105 211.007 197.947 211.956C198.816 206.182 201.976 201.516 205.53 197.086C205.688 196.928 207.426 198.906 207.584 199.064C209.006 201.041 209.243 203.414 209.48 205.708C209.638 207.606 210.586 209.425 210.428 211.402C210.428 210.295 211.06 209.267 211.139 208.239C211.376 205.945 210.902 203.73 210.033 201.595C209.796 201.041 206.952 195.663 207.11 195.584C210.981 192.578 214.851 189.731 218.643 186.646C219.986 185.539 220.539 185.855 221.25 187.2C227.727 199.934 228.517 213.222 217.537 224.769C213.43 229.12 208.532 232.442 203.319 235.21C200.396 236.871 196.684 237.266 194.551 240.272C197.789 238.848 201.265 238.057 204.109 236.001C206.952 234.419 209.954 232.995 212.64 231.176C228.991 220.34 232.861 205.154 223.461 187.832C221.882 185.222 222.119 183.878 224.251 181.742Z" fill="#333333"/>
<path d="M199.369 181.426C199.132 186.488 197.078 191.075 195.104 195.584C194.077 197.086 193.366 198.668 193.129 200.804C194.788 199.459 195.341 197.877 195.973 196.375C198.421 191.708 201.186 187.121 199.369 181.426Z" fill="#333333"/>
<path d="M214.377 107.869C214.141 103.598 211.771 100.434 207.9 99.2474C202.766 97.5864 201.265 94.739 201.423 89.3606C201.739 80.7394 195.973 75.7564 187.363 76.0728C182.702 76.231 178.279 77.4174 174.092 79.3948C160.98 85.8014 149.605 94.5808 138.941 104.468C139.099 104.863 139.415 105.1 139.81 105.179C142.259 105.179 143.839 103.439 145.735 102.332C157.82 94.9763 169.827 87.3833 183.729 83.7449C191.944 81.6094 194.235 82.954 196.842 91.0216C197.316 91.8916 197.237 92.6035 197.079 93.3944C196.763 93.3944 196.289 93.1571 195.657 92.6035C193.919 91.1007 191.944 89.7561 190.048 88.4115C191.707 91.1798 193.919 93.3153 196.605 94.9763C196.526 95.2136 196.447 95.4509 196.447 95.6881C196.763 98.4564 196.368 101.067 195.499 103.677C194.709 106.129 193.445 108.422 193.208 111.032C193.366 111.665 193.682 112.061 194.314 112.14C197.789 109.925 198.816 106.129 200.396 102.728C201.028 101.304 201.344 99.6428 203.714 100.355C207.031 101.383 210.507 104.942 210.744 107.71C210.902 110.953 208.927 113.484 204.978 115.145C205.294 111.744 204.346 110.4 201.186 110.321C198.974 110.241 196.684 110.321 195.025 112.14C195.262 113.326 196.289 113.484 197.237 113.642C198.026 113.88 199.053 113.326 199.764 114.196C198.816 115.541 197.237 116.015 195.973 116.885C193.84 118.309 191.154 119.021 189.732 121.473C187.442 123.608 184.361 123.846 181.675 125.269C179.622 125.823 179.622 125.823 177.805 129.382C179.227 128.67 180.49 127.959 181.754 127.326C183.808 126.456 185.862 125.586 187.916 124.795C191.786 123.292 195.578 121.315 199.922 121.71C202.45 119.416 206.004 119.337 208.69 117.439C212.008 114.908 214.614 112.298 214.377 107.869Z" fill="#333333"/>
<path d="M194.472 111.823C194.788 111.902 195.025 111.981 195.341 111.981C196.131 112.219 197 112.456 197.79 112.772C196.21 113.089 194.551 113.405 192.972 113.801C192.34 113.959 191.866 115.224 191.234 113.959C190.681 112.772 191.866 112.851 192.34 112.377C192.814 111.902 193.209 111.428 193.604 110.953C193.919 111.27 194.156 111.507 194.472 111.823Z" fill="#333333"/>
<path d="M182.624 99.0891C178.99 95.6881 174.487 94.8971 169.827 95.609C156.715 97.5072 146.13 104.309 136.73 113.326C135.861 114.433 135.071 115.62 134.202 116.727C128.673 123.45 123.302 130.252 118.957 137.924C120.616 137.845 121.169 136.263 122.117 135.314C129.621 127.484 137.362 119.891 145.972 113.326C149.289 110.32 153.476 108.58 156.873 105.891C161.533 102.253 166.667 99.801 172.276 98.6145C175.593 97.9027 179.069 97.8236 181.676 100.75C182.86 101.857 184.045 102.965 185.941 104.705C185.151 101.857 184.361 100.196 182.624 99.0891Z" fill="#333333"/>
<path d="M182.227 215.595C178.988 216.702 175.75 216.227 171.484 216.465C176.303 214.725 178.673 214.487 182.227 215.595Z" fill="#F4CCE6"/>
<path d="M183.966 219.312C183.65 219.945 183.65 221.052 182.623 220.894C181.517 220.736 180.806 219.707 180.648 218.758C180.411 217.651 181.596 217.809 182.307 217.73C183.334 217.73 184.203 218.046 183.966 219.312Z" fill="#F4CCE6"/>
</g>
<defs>
<clipPath id="clip0">
<rect width="288" height="227" fill="white" transform="translate(6 37)"/>
</clipPath>
</defs>
</svg>

<svg xmlns="http://www.w3.org/2000/svg" fill="none" viewBox="0 0 301 301"><g clip-path="url(#clip0)"><path fill="#FF6CC5" d="M280.651 109.371c-13.981-23.253-34.203-42.79-58.216-55.524-46.052-24.36-103.636-22.067-147.95 5.379C32.857 85.089 5.131 132.625 6 182.059a135.584 135.584 0 0 0 3.081 26.496c3.792 17.717 10.506 34.169 20.617 49.197 4.265 6.327 7.978 7.514 15.56 5.22 1.028-.079 1.975-.079 3.002-.158.237-1.899-1.343-2.769-2.211-3.955-31.202-44.846-35.23-91.907-11.296-141.104 9.084-18.666 22.75-33.694 39.653-45.874 4.503-4.35 10.032-7.356 15.482-10.362 3.397-2.056 7.03-3.4 10.585-5.062 23.223-10.757 49.369-14.316 74.725-11.39 26.304 3.085 48.185 13.447 69.986 27.684 1.501.949 2.923 1.898 4.582 2.452 5.845 4.429 10.821 9.728 15.798 15.106 12.48 15.187 22.196 31.955 27.725 50.858 1.027-1.107.632-2.847.079-4.35a148.606 148.606 0 0 0-12.717-27.446z"/><path fill="#FF6CC5" d="M197.71 43.723c-1.896-.475-4.424 1.424-5.608-1.661 1.974.237 3.87.633 5.608 1.661z"/><path fill="#333" d="M146.602 85.485c-3.87-.475-7.662-1.029-11.611-.159-9.716 2.057-17.22 7.91-23.46 15.107-15.878 18.113-30.886 36.937-44.314 56.948-1.659 2.531-3.476 4.904-5.292 7.356-.08.079-.474 0-.948-.079 6.556-17.875 13.507-35.513 24.25-51.332 7.188-10.678 16.43-19.141 27.567-25.469 7.426-4.27 15.325-6.96 24.093-6.01 3.554.316 6.872 1.344 9.715 3.638zM94.154 234.181c.474.396.948.712 1.422 1.108-2.528 1.107-4.66-.475-6.951-.949-9.163-1.978-18.405-4.034-26.541-9.413-7.82-5.141-12.244-12.338-11.849-21.75.395-10.204 6.24-17.322 14.219-22.938-1.66 3.797-3.555 7.514-4.582 11.627-1.58 6.565-.553 12.497 3.713 17.796 5.371 6.723 11.69 12.418 19.036 16.926 3.871 2.452 7.663 5.062 11.533 7.593z"/><path fill="#333" d="M138.941 104.467l-2.606 1.661c-2.133-8.067-5.609-9.886-13.35-7.118-4.344 1.582-7.82 4.271-10.585 7.909-6.319 8.384-7.899 18.192-8.609 28.237-.237 3.006-1.027 4.113-4.029 4.825-10.506 2.531-13.902 9.254-10.585 19.615.87 2.768 2.212 5.378 3.634 7.83 3.554 6.17 3.396 11.864-1.738 17.243-2.133 2.294-3.791 4.983-5.687 7.514 0-.712-.08-1.345-.08-2.057-.078.159-.236.396-.315.554 0-.237.079-.475.316-.554.71-3.163-.158-6.011-2.133-8.542-1.659-2.214-3.476-4.271-5.056-6.486-1.737-2.451-2.685-5.062-1.658-8.146.948-2.927 2.448-5.062 6.003-5.695-2.133-1.186-3.791-.712-5.371.079-6.715 3.322-8.452 12.576-3.16 18.113 1.5 1.582 3.318 3.005 5.213 4.192 3.239 2.056 5.056 4.903 4.977 8.779-.08 2.136-2.528 3.085-2.923 5.062 1.343-.554 2.607-1.74 3.792-2.689.395-.316.79-.791.632-1.266 1.737 1.424 3.396-3.084 4.107-4.033 1.501-2.136 3.397-3.955 4.977-5.932 3.554-4.509 4.818-9.966 2.685-15.424-1.343-3.401-3.08-6.723-4.265-10.203-3.239-9.017.632-15.107 10.585-16.372v5.536l.236 5.22c.316 0 .632 0 .948.079l.474-5.22c.869-7.355 1.185-7.672 9.005-7.672.869-.554 2.133.158 2.844-1.265-1.58-1.661-3.634-1.424-5.371-1.108-3.397.633-3.555-.949-2.765-3.48 1.975-6.802 4.265-13.525 7.504-19.852 1.817-3.56 4.265-6.644 7.504-8.938 4.898-3.559 7.662-2.531 9.637 3.164.632 1.977.395 4.587 3.081 5.457 1.342-2.768 1.026-5.932 2.448-8.621-.079-.158-.316-.396-.316-.396zM163.586 216.228c-1.738 2.293-3.476 4.587-6.556 7.197 2.291-5.062 4.186-9.096 5.213-13.446 2.212-9.096.553-14.079-7.03-19.457-6.161-4.429-13.112-7.83-18.642-13.13-4.818-4.587-7.188-9.966-4.739-17.954.948 12.497 10.111 14.632 18.326 18.033 3.396 1.424 6.793 2.769 9.952 4.667 11.217 6.802 13.271 18.903 5.451 31.163.316 1.582-.632 2.373-1.975 2.927zM128.832 202.544c12.481.949 21.643 7.356 22.354 15.344.79 7.91-5.055 16.373-13.27 18.825 5.134-13.367.474-24.124-9.084-34.169z"/><path fill="#FF6CC5" d="M163.586 216.227c.711-1.028 1.343-1.977 2.054-3.005 1.106 1.423 1.816.079 2.606-.396 4.977-2.847 10.032-5.378 15.957-2.531 1.5.712 3.001-1.028 4.976.237-2.291 2.848-3.002 6.091-3.239 9.808-.158 2.927-3.396 3.085-6.003 3.322-6.793.554-12.796-.791-16.351-7.435z"/><path fill="#333" d="M190.523 162.364c2.528-2.768 5.135-5.22 9.242-4.745 2.291.237 1.58-1.503 1.422-2.69-1.185-7.909-2.133-15.818-6.635-23.57 14.376 10.757 16.114 27.367 5.687 40.892.158-1.582.316-2.926.474-4.271-.79-.949-.395-1.977-.316-3.006.237-4.35-.079-4.508-4.344-3.163-1.817.553-3.555 2.214-5.53.553zM199.213 123.687c-.157 2.056-2.764 1.503-3.317 3.164-7.188 3.401-14.455 6.802-21.644 10.282-7.109 3.48-13.823 7.672-20.537 11.864 12.717-12.971 29.305-18.824 45.498-25.31zM146.445 166.24c3.555-.079 7.188-.633 10.664-.238 2.449.317 4.107 3.401 7.03 3.006 0 .395.079.87-.079 1.107-.316.475-.632 1.028-1.58.633-1.421-.633-2.922-1.107-4.423-1.661-1.027-.316-1.738-.475-2.607.712-3.712 5.299-8.215 6.011-10.901-.87-.316-.87-.631-1.74-.947-2.531.947-.633 1.895-.475 2.843-.158zM143.838 156.828c6.398-3.718 12.797-4.43 19.274-.238 2.054 1.345 4.502 1.82 7.504 2.927-4.661 2.61-8.689-.475-13.113.791 1.422-1.582 2.765-.633 4.266-1.582-5.845-1.898-11.375-1.424-16.904-.949-.948.316-1.185-.158-1.027-.949z"/><path fill="#333" d="M169.195 118.151c-2.764.632-5.371 1.502-7.188 3.954-1.58 1.345-3.08 2.69-4.66 3.955-1.738.396-2.528 1.661-3.002 3.243-1.106 1.344-2.133 2.768-3.238 4.113-2.765 4.745-6.162 9.254-7.426 14.79-2.448 6.091-2.606 12.181 0 18.271.948-.079 1.896-.079 2.765-.158-3.476-1.819-4.265-6.09-1.659-8.463l-.948-.949c-1.974-3.085.711-5.774.711-8.701 1.817-4.824 4.503-9.175 7.425-13.287 5.372-7.752 12.165-12.576 22.355-11.627 2.764.237 5.845-2.689 8.768-4.192-4.503-2.215-9.163-2.136-13.903-.949zM197.631 166.082c-3.713.791-7.347 1.898-10.98 2.847-.395-.316-1.896.949-1.264-.632.553-1.345 1.817-2.373 2.765-3.56-3.002.633-4.187 2.848-4.661 5.616-.869 7.118.79 13.446 5.451 18.903 2.922 3.718 2.922 3.718-2.528 9.887 7.425-3.48 8.294-6.248 3.317-10.677-1.816-1.978-3.001-4.351-3.633-6.882-.711-2.926-3.713-6.723 2.133-7.988.395-.079.869-.791.869-1.187-.079-3.796 2.843-3.242 5.134-3.559.395.317.711.317 1.106 0 1.58-.079 3.396 1.424 4.502-.949-.158-1.265-1.58-1.898-2.211-1.819z"/><path fill="#333" d="M194.313 168.85h1.106c-.632 3.243-.869 6.723-6.478 7.039 3.16-1.977 5.609-3.717 5.372-7.039zM176.621 198.352c1.896-1.819 3.871-1.028 5.924-.554-1.895-.158-3.317 1.661-5.213 1.108-.237-.079-.395-.317-.711-.554zM113.904 176.206c11.295-11.073 19.511-24.361 26.857-38.203 1.106-1.265 1.974-2.61 2.211-4.271a8.48 8.48 0 0 0-2.922 3.56c-8.926 12.734-18.879 24.598-30.491 35.038-6.24 5.616-10.584 12.576-9.873 21.593.789 2.136-.553 4.983 2.132 6.565 3.081 6.802 8.926 10.44 15.64 12.418 6.162 1.819 12.481 3.084 17.536 7.672-1.185-4.034-4.66-5.537-7.741-7.198-4.028-2.135-8.531-3.559-12.48-5.853-9.479-5.457-11.849-15.502-5.925-24.677 1.501-2.373 3.081-4.746 5.056-6.644zM224.251 181.742c10.111-9.887 9.874-20.406-.395-30.056-1.027-.949-2.448-1.661-2.922-3.084-3.713-10.441-11.375-17.48-20.143-23.491-2.133 1.424-.079 2.452.474 3.322 2.607 3.638 5.608 6.96 7.82 10.677-2.133-2.451-4.581-4.824-7.03-7.118-.948-.87-1.896-2.373-3.634-1.186 3.634 5.457 7.504 10.756 12.244 15.344 6.477 6.248 9.242 20.96 5.055 28.869-1.027 1.978-1.185 2.769.474 4.113.948.712 1.58 1.74.237 2.927-4.186 3.796-8.294 7.593-12.401 11.389.474-.395-.632-1.819-.948-2.056-.553-.475-1.422-.87-2.212-1.029.474.95 1.264 1.661 1.896 2.452.237.317.79.712.948 1.108.158.474-.158.791-.474 1.186-1.027 1.74-2.133 3.401-3.002 5.22-.869 1.74-1.659 3.56-2.054 5.537-.237 1.028-.395 1.977-.395 3.005-.079.95.316 2.136.158 3.085.869-5.774 4.029-10.44 7.583-14.87.158-.158 1.896 1.82 2.054 1.978 1.422 1.977 1.659 4.35 1.896 6.644.158 1.898 1.106 3.717.948 5.694 0-1.107.632-2.135.711-3.163.237-2.294-.237-4.509-1.106-6.644-.237-.554-3.081-5.932-2.923-6.011 3.871-3.006 7.741-5.853 11.533-8.938 1.343-1.107 1.896-.791 2.607.554 6.477 12.734 7.267 26.022-3.713 37.569-4.107 4.351-9.005 7.673-14.218 10.441-2.923 1.661-6.635 2.056-8.768 5.062 3.238-1.424 6.714-2.215 9.558-4.271 2.843-1.582 5.845-3.006 8.531-4.825 16.351-10.836 20.221-26.022 10.821-43.344-1.579-2.61-1.342-3.954.79-6.09z"/><path fill="#333" d="M199.369 181.426c-.237 5.062-2.291 9.649-4.265 14.158-1.027 1.502-1.738 3.084-1.975 5.22 1.659-1.345 2.212-2.927 2.844-4.429 2.448-4.667 5.213-9.254 3.396-14.949zM214.377 107.869c-.236-4.271-2.606-7.435-6.477-8.622-5.134-1.66-6.635-4.508-6.477-9.886.316-8.622-5.45-13.605-14.06-13.288-4.661.158-9.084 1.344-13.271 3.322-13.112 6.406-24.487 15.186-35.151 25.073.158.395.474.632.869.711 2.449 0 4.029-1.74 5.925-2.847 12.085-7.356 24.092-14.949 37.994-18.587 8.215-2.136 10.506-.791 13.113 7.277.474.87.395 1.581.237 2.372-.316 0-.79-.237-1.422-.79-1.738-1.503-3.713-2.848-5.609-4.192 1.659 2.768 3.871 4.903 6.557 6.564-.079.238-.158.475-.158.712.316 2.768-.079 5.379-.948 7.989-.79 2.452-2.054 4.745-2.291 7.355.158.633.474 1.029 1.106 1.108 3.475-2.215 4.502-6.011 6.082-9.412.632-1.424.948-3.085 3.318-2.373 3.317 1.028 6.793 4.587 7.03 7.355.158 3.243-1.817 5.774-5.766 7.435.316-3.401-.632-4.745-3.792-4.824-2.212-.08-4.502 0-6.161 1.819.237 1.186 1.264 1.344 2.212 1.502.789.238 1.816-.316 2.527.554-.948 1.345-2.527 1.819-3.791 2.689-2.133 1.424-4.819 2.136-6.241 4.588-2.29 2.135-5.371 2.373-8.057 3.796-2.053.554-2.053.554-3.87 4.113 1.422-.712 2.685-1.423 3.949-2.056 2.054-.87 4.108-1.74 6.162-2.531 3.87-1.503 7.662-3.48 12.006-3.085 2.528-2.294 6.082-2.373 8.768-4.271 3.318-2.531 5.924-5.141 5.687-9.57z"/><path fill="#333" d="M194.472 111.823c.316.079.553.158.869.158.79.238 1.659.475 2.449.791-1.58.317-3.239.633-4.818 1.029-.632.158-1.106 1.423-1.738.158-.553-1.187.632-1.108 1.106-1.582.474-.475.869-.949 1.264-1.424l.868.87zM182.624 99.09c-3.634-3.402-8.137-4.193-12.797-3.481-13.112 1.898-23.697 8.7-33.097 17.717-.869 1.107-1.659 2.294-2.528 3.401-5.529 6.723-10.9 13.525-15.245 21.197 1.659-.079 2.212-1.661 3.16-2.61 7.504-7.83 15.245-15.423 23.855-21.988 3.317-3.006 7.504-4.746 10.901-7.435 4.66-3.638 9.794-6.09 15.403-7.276 3.317-.712 6.793-.791 9.4 2.135 1.184 1.107 2.369 2.215 4.265 3.955-.79-2.848-1.58-4.509-3.317-5.616z"/><path fill="#F4CCE6" d="M182.227 215.595c-3.239 1.107-6.477.632-10.743.87 4.819-1.74 7.189-1.978 10.743-.87zM183.966 219.312c-.316.633-.316 1.74-1.343 1.582-1.106-.158-1.817-1.187-1.975-2.136-.237-1.107.948-.949 1.659-1.028 1.027 0 1.896.316 1.659 1.582z"/></g><defs><clipPath id="clip0"><path fill="#fff" d="M0 0h288v227H0z" transform="translate(6 37)"/></clipPath></defs></svg>
